teeny/outline/mouse.svg

<svg width="15" height="15" viewBox="0 0 15 15" fill="none" xmlns="http://www.w3.org/2000/svg">
<path d="M7.5 4V7M7.5 14.5C4.73858 14.5 2.5 12.2614 2.5 9.5V5.5C2.5 2.73858 4.73858 0.5 7.5 0.5C10.2614 0.5 12.5 2.73858 12.5 5.5V9.5C12.5 12.2614 10.2614 14.5 7.5 14.5Z" stroke="black"/>
</svg>

<svg viewBox="0 0 15 15" xmlns="http://www.w3.org/2000/svg"><path fill="none" stroke="#000" d="M7.5 4v3m0 7.5c-2.77 0-5-2.24-5-5v-4c0-2.77 2.23-5 5-5 2.76 0 5 2.23 5 5v4c0 2.76-2.24 5-5 5Z"/></svg>
